fs/next_16_regular.svg

<svg viewBox="0 0 16 16" fill="none" xmlns="http://www.w3.org/2000/svg" height="1em" width="1em">
  <path d="M14 2.5C14 2.22386 13.7762 2 13.5 2C13.2239 2 13 2.22386 13 2.5V13.5C13 13.7761 13.2239 14 13.5 14C13.7762 14 14 13.7761 14 13.5V2.5ZM2.00024 3.00176C2.00024 2.19 2.91639 1.71649 3.57861 2.18598L10.579 7.14909C11.1388 7.54594 11.1417 8.37575 10.5847 8.77654L3.58435 13.8142C2.92285 14.2903 2.00024 13.8176 2.00024 13.0026V3.00176ZM10.0006 7.96486L3.00024 3.00176L3.00024 13.0026L10.0006 7.96486Z" fill="#212121"/>
</svg>

<svg viewBox="0 0 16 16" fill="none" xmlns="http://www.w3.org/2000/svg" height="1em" width="1em">
  <path d="M14 2.5a.5.5 0 1 0-1 0v11a.5.5 0 0 0 1 0v-11ZM2 3.002a1 1 0 0 1 1.579-.816l7 4.963a1 1 0 0 1 .006 1.628l-7 5.037A1 1 0 0 1 2 13.003V3.002Zm8 4.963L3 3.002v10l7-5.037Z" fill="#212121"/>
</svg>
